X:418
T:The Gallant Weaver
M:4/4
L:1/8
Q:100
K:D
AB AG FG A2|Bc d2 A4|Bc d2 A2 f2|g2 f2 e4|
AB AG FG A2|Bc d2 A4|Bc d2 cd e2|de dc B2||
|:de|f2 gf e2 fe|df ec dc BA|Bc d2 A2 f2|g2 f2 e4|
AB AG FG A2|Bc d2 A4|Bc d2 g2 f2|e4 d2:|
